X: 30575
T: One Big Happy Islands
R: jig
M: 6/8
K: Gminor
D2 D GED|D2 D GFG|ABA AGF|A3- AFE|
D2 D GED|D2 D GFG|ABA AGF|G3- G:|
g2 g efe|dBA G2 d|ede Adc|B3- BcB|
[1 e2 e e/f/ge|d2 d g2 B|A^GA A=G=F|A3- A:|
[2 d2 e g2 f|d2 B G2 G,|A2 B A2 =F|G3- G||

